X: 21461
M: 6/8
L: 1/8
K: C
V: 1 name="1"
e2e edc | cBB B2 d/e/ | f2f {g}fed | age c2 G/c/ |\
e2e edc | cBB B2 (d/e/) | fag fed | c3 c2 H|]
g |\
a2a {b}agf | g2g g=fe | f2f fed | age c2g |\
a2a {b}agf | g2g g2c' | bc'b ag^f | g3 g^f"^D.C."^d |]
e |\
d2e f2g | ({fg}a3 a2a) | g2e f2d | (g3 e2)e |\
d2e f2g | ({fg}a3 a2)a | g2e f2d | [e3c3] "^D.C."[e2c2] |]


